icons/instagram.svg

<svg xmlns="http://www.w3.org/2000/svg" width="24" height="24" viewBox="0 0 24 24">
  <path d="M7.8,2 L16.2,2 C19.4032515,2 22,4.59674845 22,7.8 L22,16.2 C22,19.4032515 19.4032515,22 16.2,22 L7.8,22 C4.59674845,22 2,19.4032515 2,16.2 L2,7.8 C2,4.59674845 4.59674845,2 7.8,2 Z M7.6,4 C5.6117749,4 4,5.6117749 4,7.6 L4,16.4 C4,18.3882251 5.6117749,20 7.6,20 L16.4,20 C17.3547794,20 18.2704534,19.6207154 18.9455844,18.9455844 C19.6207154,18.2704534 20,17.3547794 20,16.4 L20,7.6 C20,6.64522064 19.6207154,5.72954655 18.9455844,5.05441559 C18.2704534,4.37928463 17.3547794,4 16.4,4 L7.6,4 Z M17.25,5.5 C17.9403559,5.5 18.5,6.05964406 18.5,6.75 C18.5,7.44035594 17.9403559,8 17.25,8 C16.5596441,8 16,7.44035594 16,6.75 C16,6.05964406 16.5596441,5.5 17.25,5.5 Z M12,7 C14.7614237,7 17,9.23857625 17,12 C17,14.7614237 14.7614237,17 12,17 C9.23857625,17 7,14.7614237 7,12 C7,9.23857625 9.23857625,7 12,7 L12,7 Z M12,9 C10.3431458,9 9,10.3431458 9,12 C9,13.6568542 10.3431458,15 12,15 C13.6568542,15 15,13.6568542 15,12 C15,10.3431458 13.6568542,9 12,9 Z"/>
</svg>

<svg xmlns="http://www.w3.org/2000/svg" viewBox="0 0 24 24">
  <path d="M7.8 2h8.4C19.4 2 22 4.6 22 7.8v8.4c0 3.2-2.6 5.8-5.8 5.8H7.8A5.8 5.8 0 0 1 2 16.2V7.8C2 4.6 4.6 2 7.8 2zm-.2 2A3.6 3.6 0 0 0 4 7.6v8.8A3.6 3.6 0 0 0 7.6 20h8.8a3.6 3.6 0 0 0 3.6-3.6V7.6A3.6 3.6 0 0 0 16.4 4H7.6zm9.65 1.5a1.25 1.25 0 1 1 0 2.5 1.25 1.25 0 0 1 0-2.5zM12 7a5 5 0 1 1 0 10 5 5 0 0 1 0-10zm0 2a3 3 0 1 0 0 6 3 3 0 0 0 0-6z"/>
</svg>
